X:1
T:S'io vi mento, madonna
T:Jhan Gero
T:Source : Trium vocum cantiones---Nürnberg---J.Petreius---1541. Editor : André Vierendeels (08/04/16).
T:Notes : Original clefs : C2, C4, F4 Editorial accidentals above the staff Note values have been halved 
T:S'io vi mento, madonna
T:©
T:©
T:©
T:©
C:Jhan Gero
Z:©
%%score [ 1 2 3 ]
L:1/8
Q:1/4=100
M:2/2
K:C
V:1 treble nm="Alto" snm="A"
V:2 treble-8 nm="Tenor" snm="T"
V:3 bass nm="Bass" snm="B"
V:1
 D4 A2 A2 | A2 A2 A3 G | F2 E2 D4 | C8 | z2 C2 D2 E2 | F2 F2 E3 D/E/ | F2 E4 D2 | E2 E2 F2 G2 | %8
w: S'io vi men-|to, ma- don- na|Gio- ve m'ar-|da,|poi che m'ha-|ve- te det- * *|* to deg-|gia mu- tur na-|
 A2 GF EFGE | FG A4 G2 | A4 z2 A2 | A2 A2 A2 A2 | _B2 A2 G3 F | E4 D2 F2 | E2 D4 C2 | D2 F2 F2 F2 | %16
w: * * * tu- * * *||ra, m'ha-|ve- te po- st'in|u- na se- pol-|tu- ra, se-|pol- tu- *|ra, m'ha- ve- te|
 E2 F2 G3 F | E2 D4 C2 | D8 | E4 E2 E2 | F4 F4 | E6 G2 | F2 E2 D4 | ^C2 E3 D C2 | B,4 A,4 | %25
w: post' in u- na|se- pol- tu-|ra,|pos- si- bi-|le non|fia mai|ch'io non vi'a-|mi, a- * *|* mi,|
 z2 A,2 C2 D2 | E2 E2 F2 F2 | E2 E3 D C2 | B,4 A,4 | z2 A,2 C2 D2 | E2 E2 F2 F2 | E2 D4 C2 | D8 |] %33
w: per- che m'ha-|ve- te pre- so|con dol- ci ha-|* mi,|per- che m'ha-|ve- te pre- so|con dolc' ha-|mi?|
V:2
 d4 f2 f2 | f2 f2 f3 e | d2 c2 f4 | e8- | e4 A2 G2 | A2 B2 c2 c2 | B2 B2 z2 A2 | B2 c2 d2 cB | %8
w: S'io vi men-|to, ma- don- na|Gio- ve m'ar-|da,|_ poi che|m'ha- ve- te det-|* to deg-|gia mu- tur _ _|
 A2 d2 c2 B2 | dcBA B4 | A2 e2 e2 e2 | e2 e2 f2 e2 | d2 f2 e2 d2- | d2 c2 d3 c | B2 A4 G2 | %15
w: _ na- tu- *||ra, m'ha- ve- te|post' in u- na|se- pol- tu- ra,|_ in u- na|se- pol- tu|
 A2 A2 A2 A2 | A2 A2 _B3 A | G2 F2 E4 | D4 A4 | c6 c2 | d4 d4 | c6 B2 | A2 G2 F4 | E4 z2 E2 | %24
w: ra, m'ha- ve- te|post' in u- na|se- pol- tu-|a, pos-|si- bi-|le non|fia mai|ch'io non vi'a-|mi, per-|
 G2 G2 A2 A2 | _B2 A2 G2 F2 | E4 D4 | A4 E4 | G2 G2 A2 c2 | B2 A2 G2 F2 | E4 D2 A2 | GFED E4 | %32
w: che m'ha- ve- te|pre- so con dol-|ci ha-|* mi,|per- che m'ha- ve-|te pre- so con|dol- ci ha-||
 D8 |] %33
w: mi?|
V:3
 z8 | z8 | z4 D,4 | A,2 A,2 A,2 A,2 | A,3 G, F,2 E,2 |"^#" D,4 C,2 C,2 | D,2 E,2 F,2 F,2 | %7
w: ||S'io|vi men- to, ma-|don- na Gio- ve|m'ar- da, poi|che m'ha- ve- te|
 E,2 E,2 z2 E,2 | F,2 G,2 A,2 G,2 | D,2 F,2 E,4 | A,8- | A,8 | z2 F,2 G,2 G,2 | %13
w: det- to, deg-|gia mu- tur na-|tu- * *|ra,|_|m'ha- ve- te|
"^b" A,2 A,2 B,3 A, | G,2 F,2 E,4 | D,2 D,2 D,2 D,2 | C,2 D,2 G,,2 G,,2 | C,2 D,2 A,,4 | %18
w: post' in u- na|se- pol- tu-|ra, m'ha- ve- te|post' in u- na|se- pol- tu-|
"^-natural" D,8 | A,4 A,2 A,2 | D,4 D,4 | A,6 E,2 | F,2 C,2 D,4 |"^-natural" A,,2 A,,2 C,3 D, | %24
w: ra,|pos- si- bil'|non fia|mai ch'io|non vi a-|mi, per- che m'ha-|
 E,2 E,2 F,2 F,2 | D,2 F,2 E,2 D,2- | D,2 C,2 D,4 |"^#" A,,4 C,3 D, | E,2 E,2 F,2 F,2 | %29
w: ve- te pre- so|con dol- ci ha-|* * mi,|per- che m'ha-|ve- te pre- so|
 D,2 F,2 E,2 D,2- | D,2 C,2 D,2 D,2 | G,,2 _B,,2 A,,4 | D,8 |] %33
w: non dol- ci ha-|* * mi, con|dol- ci ha-|mi?|

